X:1
T:Gott ein Vater, 65.65
T:Friedrich Silcher, arr by Wihelm Tschirsch
T:Gott ein Vater, 65.65
T:Public Domain
C:Friedrich Silcher, arr by Wihelm Tschirsch
Z:Public Domain
%%score 1 ( 2 3 )
L:1/8
M:4/4
K:Eb
V:1 treble 
V:2 bass 
V:3 bass 
V:1
 [GB]3 [Ac] [GB]2 [FA]2 | [EG]4 [DF]4 | [CE]2 ([DF][EG]) [FA]2 [EG]2 | [DF]8 | %4
 [EG]2 [EB]2 [Ec]2 [DB]2 | [Ee]4 [Bd]2 [Ac]2 | [GB]2 ([FA][EG]) [FA]2 [DB]2 | [EG]8 |] %8
V:2
 [E,B,]4 [E,B,]2 [B,,B,]2 | (E,2 G,2) B,4 | [C,G,]4 [D,B,]2 [E,B,]2 | [B,,B,]8 | %4
 E,2 G,2 A,2 [A,B,]2 | [G,B,]4 [A,E]4 | B,4 [B,,B,]4 | [E,B,]8 |] %8
V:3
 x8 | B,4 B,4 | x8 | x8 | B,4 A,2 x2 | x8 | B,4 x4 | x8 |] %8

